X: 24
T: The Fidlers Whim
%R: jig
B: "Twenty Four Favourite Dances for the Year 1783", Thomas Straight, ed. p.12 #2
F: http://www.vwml.org/browse/browse-collections-dance-tune-books/browse-straights1783
Z: 2014 John Chambers <jc:trillian.mit.edu>
M: 6/8
L: 1/8
K: A
|:\
cAA eAA | cAA e2c | dBB fBB | dBB f2e |\
cAA eAA | cAA e2c | d2e fga | edc B2A :|
|:\
cAA faf | cAA e2c | dBB f/g/a/g/f/e/ | dBB f2e |\
cAA faf | cAA e2c | dfd cec | BAG A3 :|
% - - - - - - - - - - Dance description: - - - - - - - - - -
%%begintext align
%% Turn your Part.r with the right & left hands .|.
%% lead down the middle up again .|: turn corners
%% :|. lead outsides your partner :|:
%%endtext
